X: 43405
T: Xota De Vilabol
R: waltz
M: 3/4
K: Dmixolydian
|:dc/B/A|cBG|BA/G/F/G/|A3-|A3|
dc/B/A|cBG|BA/G/F/G/|1 A/B/A/G/F/E/|D3:|2 A/B/A/G/F/E/|D2 D||
|:AD/A/D/A/|G2 D|BA/B/c/B/|A2 D|
AD/A/D/A/|G>_BG|1 AE/F/(3G/F/E/|D2 D:|2 D3 D3||

